react/assets/icons/new.svg

<svg role="img" xmlns="http://www.w3.org/2000/svg" width="48px" height="48px" viewBox="0 0 24 24" aria-labelledby="newIconTitle" stroke-linecap="square" stroke-linejoin="miter" fill="none"> <title id="newIconTitle">New</title> <path d="M19 14V22H2.99997V4H13"/> <path d="M17.4608 4.03921C18.2418 3.25817 19.5082 3.25816 20.2892 4.03921L20.9608 4.71079C21.7418 5.49184 21.7418 6.75817 20.9608 7.53921L11.5858 16.9142C11.2107 17.2893 10.702 17.5 10.1716 17.5L7.5 17.5L7.5 14.8284C7.5 14.298 7.71071 13.7893 8.08579 13.4142L17.4608 4.03921Z"/> <path d="M16.25 5.25L19.75 8.75"/> </svg>

<svg xmlns="http://www.w3.org/2000/svg" width="48" height="48" viewBox="0 0 24 24" aria-labelledby="newIconTitle" stroke-linecap="square" fill="none"><path d="M19 14v8H3V4h10"/><path d="M17.46 4.04a2 2 0 012.83 0l.67.67a2 2 0 010 2.83l-9.374 9.374a2 2 0 01-1.414.586H7.5v-2.672a2 2 0 01.586-1.414L17.46 4.04zM16.25 5.25l3.5 3.5"/></svg>
